assets/relics/Meso.svg

<svg height="256" viewBox="0 0 128 128" width="256" xmlns="http://www.w3.org/2000/svg"><path d="m59.84 16.93c2-4.73 3.37-9.71 4.16-14.78.77 5.07 2.27 9.99 4.11 14.77 15.76 1.46 30.58 11 37.91 25.1 7.26 13.07 7.24 29.33 1.3 42.9 3.49 4.08 7.03 8.19 11.52 11.22-5.01-2.24-10.38-3.47-15.79-4.22-8.74 12.49-23.7 20.57-39.04 20.12-15.34.45-30.3-7.64-39.06-20.12-5.49.76-10.94 2.02-15.99 4.35 4.62-3.09 8.34-7.26 11.79-11.57-5.76-12.5-5.95-27.51-.09-40 6.83-15.46 22.42-26.26 39.18-27.77m1.68 4.4c1.65 0 3.29 0 4.94.01-.84-2.24-1.65-4.49-2.43-6.76-.79 2.27-1.64 4.51-2.51 6.75m-35.68 20.63c-7.15 11.72-7.97 26.73-2.95 39.42 1.03-1.45 1.98-2.96 2.94-4.45 2.03 5.22 4.86 10.1 8.35 14.48-1.81.03-3.63.07-5.45.11 8.37 10.72 21.67 17.52 35.34 17.35 13.63.13 26.85-6.68 35.21-17.35-1.82-.04-3.63-.08-5.45-.1 3.36-4.48 6.38-9.25 8.35-14.51.96 1.37 1.5 3.21 3.01 4.12 5.35-13.28 3.82-29.17-4.26-41.03-6.94-10.65-18.7-17.84-31.27-19.51.93 1.6 1.88 3.18 2.82 4.77-5.62-.79-11.33-.78-16.95 0 .93-1.59 1.88-3.18 2.81-4.77-13.35 1.76-25.73 9.79-32.5 21.47m-.54 42.07c-1.48 1.85-2.98 3.67-4.5 5.48 2.35-.44 4.71-.86 7.07-1.26-.86-1.4-1.73-2.81-2.57-4.22m74.81 4.23c2.37.39 4.73.81 7.09 1.24-1.52-1.8-3.02-3.63-4.5-5.48-.84 1.43-1.73 2.83-2.59 4.24z"/><path d="m53.85 43.72c2.67-2.49 6.68-2.36 10.1-2.52 4.46-.26 10.34.63 12.18 5.35 1.43.76 2.32 1.9 2.11 3.61.56.02 1.68.06 2.24.09 1.97 2.11 4.39 3.93 5.76 6.52.75 2.99.08 6.12.5 9.16.06 2.3 1.09 5.13-.89 6.94-3.88 4.33-8.41 8.02-12.35 12.3-6.01 3.11-13.13 2.36-19.35.23-.15-.39-.45-1.16-.6-1.55-1.64-1.24-3-2.79-4.34-4.35-.13-.58-.39-1.73-.51-2.31-.62-.01-1.86-.03-2.48-.05-1.79-1.96-4.05-3.65-5.2-6.1-.18-2.67.47-5.32.38-8 .12-2.31-.44-4.84.7-6.98 3.31-4.68 8.43-7.68 11.75-12.34m1.32.36c-.07 3.55 2.46 6.14 3.95 9.11-.89-3.22-1.21-6.81-3.95-9.11m13.72 7.4c1.1-1.26 2.11-2.58 3.14-3.9.02-.94.08-2.81.1-3.75-1.78 2.22-2.91 4.82-3.24 7.65m-23.43 4.98c.09.08.09.08 0 0m7.38 7.83c.86 3.97 4.84 5.58 7.59 8.03-2.87-1.09-6.1-1.76-8.31-4.06-2.25 1.26-5.72 1.76-6.5 4.59 3.85 1.88 6.28 5.36 9.04 8.48 1.86-1.25 3.17-3.1 4.54-4.84-.44 2.13-.89 4.26-1.26 6.41 4.03.13 8.07.32 12.1 0-.5-2.22-1.04-4.43-1.46-6.66 1.56 1.9 2.9 3.96 4.3 5.98.39-.62 1.18-1.86 1.57-2.48 2.81-2.66 5.27-5.67 8.58-7.78-2.06-1.67-4.42-2.87-6.92-3.72-2.63 1.76-5.49 3.15-8.48 4.17 2.58-2.71 7.07-4.12 7.57-8.29-2.24-2.11-4.19-4.51-6.49-6.56.97 1.83 2.12 3.55 3.1 5.37-.88 2.46-4.16 2.52-5.91 4.18 1.24-.42 3.74-1.27 4.99-1.69-1.72 2.13-2.84 4.89-5.17 6.46-2.82 1.35-4.95-1.51-6.91-2.99 2.92.87 5.99 1.29 9 .67-4.01-.05-8.63-.22-11.15-3.9 1.74.38 3.48.76 5.23 1.14-1.7-.83-3.44-1.59-5.12-2.45-1.17-2.44 1.8-4.52 2.46-6.76-2.3 2.07-4.24 4.48-6.39 6.7m-8.93-5.8c.71 3.77.11 7.6.32 11.4 1.13-.38 2.26-.77 3.38-1.17 1.37-1.79 4.4-2.72 2.87-5.44.35-.3 1.05-.9 1.4-1.2-2.79-.87-5.77-1.52-7.97-3.59m32.4 3.55c1.45 1.02 1.07 2.54.71 3.99 2.39 1.27 4.17 3.53 6.98 3.92.37-3.81.21-7.63-.07-11.43-2.12 1.95-4.91 2.75-7.62 3.52z"/><path d="m59.44 74.58c2.88-1.37 6.23-1.36 9.12-.01-2.99.78-6.13.78-9.12.01z"/></svg>

<svg width="256px" height="256px" viewBox="0 0 128 128" version="1.1" xmlns="http://www.w3.org/2000/svg"><path d=" M 59.84 16.93 C 61.84 12.20 63.21 7.22 64.00 2.15 C 64.77 7.22 66.27 12.14 68.11 16.92 C 83.87 18.38 98.69 27.92 106.02 42.02 C 113.28 55.09 113.26 71.35 107.32 84.92 C 110.81 89.00 114.35 93.11 118.84 96.14 C 113.83 93.90 108.46 92.67 103.05 91.92 C 94.31 104.41 79.35 112.49 64.01 112.04 C 48.67 112.49 33.71 104.40 24.95 91.92 C 19.46 92.68 14.01 93.94 8.96 96.27 C 13.58 93.18 17.30 89.01 20.75 84.70 C 14.99 72.20 14.80 57.19 20.66 44.70 C 27.49 29.24 43.08 18.44 59.84 16.93 M 61.52 21.33 C 63.17 21.33 64.81 21.33 66.46 21.34 C 65.62 19.10 64.81 16.85 64.03 14.58 C 63.24 16.85 62.39 19.09 61.52 21.33 M 25.84 41.96 C 18.69 53.68 17.87 68.69 22.89 81.38 C 23.92 79.93 24.87 78.42 25.83 76.93 C 27.86 82.15 30.69 87.03 34.18 91.41 C 32.37 91.44 30.55 91.48 28.73 91.52 C 37.10 102.24 50.40 109.04 64.07 108.87 C 77.70 109.00 90.92 102.19 99.28 91.52 C 97.46 91.48 95.65 91.44 93.83 91.42 C 97.19 86.94 100.21 82.17 102.18 76.91 C 103.14 78.28 103.68 80.12 105.19 81.03 C 110.54 67.75 109.01 51.86 100.93 40.00 C 93.99 29.35 82.23 22.16 69.66 20.49 C 70.59 22.09 71.54 23.67 72.48 25.26 C 66.86 24.47 61.15 24.48 55.53 25.26 C 56.46 23.67 57.41 22.08 58.34 20.49 C 44.99 22.25 32.61 30.28 25.84 41.96 M 25.30 84.03 C 23.82 85.88 22.32 87.70 20.80 89.51 C 23.15 89.07 25.51 88.65 27.87 88.25 C 27.01 86.85 26.14 85.44 25.30 84.03 M 100.11 88.26 C 102.48 88.65 104.84 89.07 107.20 89.50 C 105.68 87.70 104.18 85.87 102.70 84.02 C 101.86 85.45 100.97 86.85 100.11 88.26 Z" /><path d=" M 53.85 43.72 C 56.52 41.23 60.53 41.36 63.95 41.20 C 68.41 40.94 74.29 41.83 76.13 46.55 C 77.56 47.31 78.45 48.45 78.24 50.16 C 78.80 50.18 79.92 50.22 80.48 50.25 C 82.45 52.36 84.87 54.18 86.24 56.77 C 86.99 59.76 86.32 62.89 86.74 65.93 C 86.80 68.23 87.83 71.06 85.85 72.87 C 81.97 77.20 77.44 80.89 73.50 85.17 C 67.49 88.28 60.37 87.53 54.15 85.40 C 54.00 85.01 53.70 84.24 53.55 83.85 C 51.91 82.61 50.55 81.06 49.21 79.50 C 49.08 78.92 48.82 77.77 48.70 77.19 C 48.08 77.18 46.84 77.16 46.22 77.14 C 44.43 75.18 42.17 73.49 41.02 71.04 C 40.84 68.37 41.49 65.72 41.40 63.04 C 41.52 60.73 40.96 58.20 42.10 56.06 C 45.41 51.38 50.53 48.38 53.85 43.72 M 55.17 44.08 C 55.10 47.63 57.63 50.22 59.12 53.19 C 58.23 49.97 57.91 46.38 55.17 44.08 M 68.89 51.48 C 69.99 50.22 71.00 48.90 72.03 47.58 C 72.05 46.64 72.11 44.77 72.13 43.83 C 70.35 46.05 69.22 48.65 68.89 51.48 M 45.46 56.46 C 45.55 56.54 45.55 56.54 45.46 56.46 M 52.84 64.29 C 53.70 68.26 57.68 69.87 60.43 72.32 C 57.56 71.23 54.33 70.56 52.12 68.26 C 49.87 69.52 46.40 70.02 45.62 72.85 C 49.47 74.73 51.90 78.21 54.66 81.33 C 56.52 80.08 57.83 78.23 59.20 76.49 C 58.76 78.62 58.31 80.75 57.94 82.90 C 61.97 83.03 66.01 83.22 70.04 82.90 C 69.54 80.68 69.00 78.47 68.58 76.24 C 70.14 78.14 71.48 80.20 72.88 82.22 C 73.27 81.60 74.06 80.36 74.45 79.74 C 77.26 77.08 79.72 74.07 83.03 71.96 C 80.97 70.29 78.61 69.09 76.11 68.24 C 73.48 70.00 70.62 71.39 67.63 72.41 C 70.21 69.70 74.70 68.29 75.20 64.12 C 72.96 62.01 71.01 59.61 68.71 57.56 C 69.68 59.39 70.83 61.11 71.81 62.93 C 70.93 65.39 67.65 65.45 65.90 67.11 C 67.14 66.69 69.64 65.84 70.89 65.42 C 69.17 67.55 68.05 70.31 65.72 71.88 C 62.90 73.23 60.77 70.37 58.81 68.89 C 61.73 69.76 64.80 70.18 67.81 69.56 C 63.80 69.51 59.18 69.34 56.66 65.66 C 58.40 66.04 60.14 66.42 61.89 66.80 C 60.19 65.97 58.45 65.21 56.77 64.35 C 55.60 61.91 58.57 59.83 59.23 57.59 C 56.93 59.66 54.99 62.07 52.84 64.29 M 43.91 58.49 C 44.62 62.26 44.02 66.09 44.23 69.89 C 45.36 69.51 46.49 69.12 47.61 68.72 C 48.98 66.93 52.01 66.00 50.48 63.28 C 50.83 62.98 51.53 62.38 51.88 62.08 C 49.09 61.21 46.11 60.56 43.91 58.49 M 76.31 62.04 C 77.76 63.06 77.38 64.58 77.02 66.03 C 79.41 67.30 81.19 69.56 84.00 69.95 C 84.37 66.14 84.21 62.32 83.93 58.52 C 81.81 60.47 79.02 61.27 76.31 62.04 Z" /><path d=" M 59.44 74.58 C 62.32 73.21 65.67 73.22 68.56 74.57 C 65.57 75.35 62.43 75.35 59.44 74.58 Z" /></svg>
